tenants/story/icons/info_inverted.svg

<svg fill="none" height="24" viewBox="0 0 24 24" width="24" xmlns="http://www.w3.org/2000/svg" xmlns:xlink="http://www.w3.org/1999/xlink"><clipPath id="a"><path d="m0 0h24v24h-24z"/></clipPath><g clip-path="url(#a)"><path d="m11.999 0c6.628 0 12.001 5.373 12.001 12.001 0 6.627-5.373 11.999-12.001 11.999-6.629.001-11.99899986-5.372-11.99899986-11.999-.001-6.628 5.36999986-12.001 11.99899986-12.001zm-.005 9.899c-.294.0005-.5776.1089-.797.3047-.2193.1958-.3592.4652-.393.7573l-.009.14.005 6.6.007.14c.0339.2923.1741.562.3939.7578.2198.1957.5038.3039.7981.3039s.5783-.1082.7981-.3039c.2198-.1958.36-.4655.3939-.7578l.008-.14-.005-6.602-.009-.14c-.0345-.2919-.175-.5609-.3947-.7561s-.5034-.30298-.7973-.3029zm.006-4.498c-.2035-.01038-.407.02077-.5981.09153s-.3658.17967-.5134.32009c-.1477.14042-.2652.30942-.3455.49671s-.1216.38895-.1215.59272c.0002.20377.0418.40538.1223.59257.0805.18718.1983.35602.3461.49624.1479.14023.3227.2489.5139.31941s.3947.10138.5982.09073c.3844-.02024.7464-.1873 1.0112-.46669s.4122-.64979.4118-1.03473c-.0004-.38495-.1485-.75505-.4139-1.03391-.2653-.27887-.6276-.4452-1.0121-.46467z" fill="#fff"/></g></svg>

<svg width="24" height="24" viewBox="0 0 24 24" fill="none" xmlns="http://www.w3.org/2000/svg">
<g clip-path="url(#clip0_2137_28423)">
<path d="M11.999 0C18.627 0 24 5.373 24 12.001C24 18.628 18.627 24 11.999 24C5.37 24.001 1.39616e-07 18.628 1.39616e-07 12.001C-0.00099986 5.373 5.37 0 11.999 0ZM11.994 9.899C11.7 9.8995 11.4164 10.0079 11.197 10.2037C10.9777 10.3995 10.8378 10.6689 10.804 10.961L10.795 11.101L10.8 17.701L10.807 17.841C10.8409 18.1333 10.9811 18.403 11.2009 18.5988C11.4207 18.7945 11.7047 18.9027 11.999 18.9027C12.2933 18.9027 12.5773 18.7945 12.7971 18.5988C13.0169 18.403 13.1571 18.1333 13.191 17.841L13.199 17.701L13.194 11.099L13.185 10.959C13.1505 10.6671 13.01 10.3981 12.7903 10.2029C12.5706 10.0077 12.2869 9.89992 11.993 9.9L11.994 9.899ZM12 5.401C11.7965 5.39062 11.593 5.42177 11.4019 5.49253C11.2108 5.56329 11.0361 5.6722 10.8885 5.81262C10.7408 5.95304 10.6233 6.12204 10.543 6.30933C10.4627 6.49662 10.4214 6.69828 10.4215 6.90205C10.4217 7.10582 10.4633 7.30743 10.5438 7.49462C10.6243 7.6818 10.7421 7.85064 10.8899 7.99086C11.0378 8.13109 11.2126 8.23976 11.4038 8.31027C11.595 8.38078 11.7985 8.41165 12.002 8.401C12.3864 8.38076 12.7484 8.2137 13.0132 7.93431C13.278 7.65492 13.4254 7.28452 13.425 6.89958C13.4246 6.51463 13.2765 6.14453 13.0111 5.86567C12.7458 5.5868 12.3835 5.42047 11.999 5.401H12Z" fill="white"/>
</g>
<defs>
<clipPath id="clip0_2137_28423">
<rect width="24" height="24" fill="white"/>
</clipPath>
</defs>
</svg>
